X:1
T:Some Sweet Day
T:Isham Emmanuel Reynolds, 1916
T:Some Sweet Day
T:Public Domain
T:Public Domain
C:Isham Emmanuel Reynolds, 1916
Z:Public Domain
%%score ( 1 2 ) ( 3 4 )
L:1/8
M:9/8
K:C
V:1 treble 
V:2 treble 
V:3 bass 
V:4 bass 
V:1
 [CE][DF][^D^F] | [EG]6 [Ec][Ec][EB] | [DB]6 [B,D]2 [CE] | ([DF]3 [EG]3) [GB]2 [FA] | %4
w: 1.~There is a|land our eyes shall|see, Some sweet|day, * some sweet|
w: 2.~From care and|toil we shall be|free, Some sweet|day, * some sweet|
w: 3.~A- round the|throne we’ll sing His|praise, Some sweet|day, * some sweet|
w: 4.~We’ll meet the|loved ones gone be-|fore, Some sweet|day, * some sweet|
 [EG]6 [CE][DF][^D^F] | [EG]6 [Gc][Gd][Gc] | [FA]6 [FA]2 [FA] | [^Fd]6 [FA]2 [Fc] | [FB]6 || %9
w: day; Where we shall|dwell, dear Lord, with|Thee, Some sweet|day, some sweet|day.|
w: day; E- ter- nal|joy in Heav’n ’twill|be, Some sweet|day, some sweet|day.|
w: day; A- loud the|great ho- san- nas|raise, Some sweet|day, some sweet|day.|
w: day; To know and|greet them as of|yore, Some sweet|day, some sweet|day.|
"^Refrain" G2 [FG] | ([EG]3 [^DB]3) [DA]2 [EG] | ([EG]3 [Ec]3) [Ec]2 [Ec] | %12
w: |||
w: Some sweet|some * sweet day,|We * shall dwell|
w: |||
w: |||
 [^Fc]3 [FA]3 [Fd]2 [Fe] | ([Gd]3 [Fd]3) G2 G | ([Ge]3 [Af]3) [Ge]2 [^Gd] | %15
w: |||
w: in “Glo- ry Land”;|Some * sweet day,|day * With the|
w: |||
w: |||
 ([Ac]3 [FA]3) [^DB]2 [DA] | [EG]3 [Ec]3 [^Fc]2 [=FB] | [Ec]6 |] %18
w: |||
w: ran- * somed we|shall stand. * *||
w: |||
w: |||
V:2
 x3 | x9 | x9 | x9 | x9 | x9 | x9 | x9 | x6 || G2 x | x9 | x9 | x9 | x6 G2 G | x9 | x9 | x9 | x6 |] %18
w: ||||||||||||||||||
w: |||||||||day,||||some sweet|||||
V:3
 [C,G,][C,G,][C,C] | [C,C]6 [C,G,][C,G,][C,G,] | [D,G,]6 G,2 G, | [G,B,]6 [G,D]2 [G,B,] | %4
w: ~ ~ ~|~ ~ ~ ~|~ ~ ~|~ ~ ~|
 [C,C]6 [C,G,][C,G,][C,C] | [C,C]6 [E,C][E,C][E,C] | [F,C]6 [F,C]2 [F,C] | [D,C]6 [D,C]2 [D,D] | %8
w: ~ ~ ~ ~|~ ~ ~ ~|~ ~ ~|~ ~ Some|
 [G,D]6 || z3 | [C,C]2 [C,G,] [C,^F,]3 (F,2 G,) | [C,C]2 [C,C] [C,G,]3 C2 [_B,C] | %12
w: sweet||day, yes, some sweet *|~ ~ ~ ~ ~|
 [A,D]3 [D,D]3 [D,C]2 [D,C] | [G,B,]6 z3 | [C,C]2 [C,C] [C,C]3 ([C,C]2 [E,B,]) | %15
w: ~ Some sweet day,|yes,|some sweet day, * *|
 [F,A,]2 [F,C] [F,C]3 [^F,C]2 [F,C] | [G,C]3 [A,C]3 [D,D]2 [G,,G,B,D] | [C,G,C]6 |] %18
w: |||
V:4
 x3 | x9 | x6 G,2 G, | x9 | x9 | x9 | x9 | x9 | x6 || x3 | x6 C,3 | x6 C2 x | x9 | x9 | x9 | x9 | %16
w: ||~ ~||||||||day,|~|||||
 x9 | x6 |] %18
w: ||

